icons/lines/tag-user.svg

<svg xmlns="http://www.w3.org/2000/svg" width="24" height="24" viewBox="0 0 24 24" fill="none" stroke="currentColor" stroke-width="2" stroke-linecap="round" stroke-linejoin="round" >
  <path d="M18 18.86H17.24C16.44 18.86 15.68 19.17 15.12 19.73L13.41 21.42C12.63 22.19 11.36 22.19 10.58 21.42L8.87 19.73C8.31 19.17 7.54 18.86 6.75 18.86H6C4.34 18.86 3 17.53 3 15.89V4.97C3 3.33 4.34 2 6 2H18C19.66 2 21 3.33 21 4.97V15.88C21 17.52 19.66 18.86 18 18.86Z" stroke-miterlimit="10"/>
  <path d="M12.0701 8.95005C12.0301 8.95005 11.97 8.95005 11.92 8.95005C10.87 8.91005 10.04 8.06005 10.04 7.00005C10.04 5.92005 10.9101 5.05005 11.9901 5.05005C13.0701 5.05005 13.9401 5.93005 13.9401 7.00005C13.9501 8.06005 13.1201 8.92005 12.0701 8.95005Z"/>
  <path d="M9.24994 11.9601C7.91994 12.8501 7.91994 14.3001 9.24994 15.1901C10.7599 16.2001 13.2399 16.2001 14.7499 15.1901C16.0799 14.3001 16.0799 12.8501 14.7499 11.9601C13.2399 10.9601 10.7699 10.9601 9.24994 11.9601Z"/>
  </svg>

<svg xmlns="http://www.w3.org/2000/svg" width="24" height="24" viewBox="0 0 24 24" fill="none" stroke="currentColor" stroke-width="2" stroke-linecap="round" stroke-linejoin="round">
  <path d="M11.92 8.95a1.945 1.945 0 1 1 .15 0z" />
  <path d="M17.24 18.86a3 3 0 0 0-2.12.87l-1.71 1.69a2 2 0 0 1-2.83 0l-1.71-1.69a3 3 0 0 0-2.12-.87H6a3 3 0 0 1-3-2.97V4.97A3 3 0 0 1 6 2h12a3 3 0 0 1 3 2.97v10.91a3 3 0 0 1-3 2.98z" />
  <path d="M9.25 11.96c-1.33.89-1.33 2.34 0 3.23 1.51 1.01 3.99 1.01 5.5 0 1.33-.89 1.33-2.34 0-3.23-1.51-1-3.98-1-5.5 0" />
</svg>
